build/category/VacationSolid.svg

<svg xmlns="http://www.w3.org/2000/svg" fill="none" viewBox="0 0 24 24" focusable="false"><path d="M0 0H24V24H0z"/><path fill="#74767B" fill-rule="evenodd" d="M13.2037 3.12442C11.699 3.52759 10.931 4.31474 10.5456 5.08761C10.1601 4.31475 9.39216 3.52761 7.88751 3.12444C5.45186 2.47181 4.21563 3.66395 3.67998 4.47533C3.45718 4.81281 3.66764 5.22538 4.05825 5.33004L7.76581 6.32348C7.19168 6.47533 6.5746 6.80911 5.95226 7.43144C4.27921 9.1045 4.71261 10.7186 5.15202 11.5699C5.3371 11.9285 5.79883 11.9509 6.08416 11.6656L9.3025 8.44723C9.22257 9.6249 9.30268 10.9396 9.45298 12.3309C9.56 13.3217 9.78594 14.3064 10.1195 15.2323C8.06608 15.7584 6.34984 17.1263 5.36023 18.9465L5.36025 18.9465C4.93597 18.74 4.48776 18.4831 4.01264 18.1676C3.71361 17.9689 3.31018 18.0503 3.11156 18.3493C2.91293 18.6484 2.99433 19.0518 3.29336 19.2504C5.37766 20.6349 7.12431 21.0711 8.69391 20.9685C10.2368 20.8676 11.535 20.246 12.6847 19.688L12.7276 19.6672C13.8948 19.1007 14.8931 18.6161 15.9998 18.538C17.0755 18.462 18.334 18.7717 19.9681 20.0251C20.253 20.2436 20.661 20.1898 20.8795 19.9049C21.098 19.6201 21.0442 19.212 20.7593 18.9936C19.5706 18.0818 18.4925 17.5706 17.4813 17.3534C16.105 15.9017 14.1581 14.9964 11.9998 14.9964C11.8071 14.9964 11.616 15.0036 11.4269 15.0178C11.086 14.1354 10.8516 13.1735 10.7455 12.1913C10.5106 10.017 10.484 8.26587 10.8485 6.98063C10.8791 6.9767 10.91 6.97065 10.9409 6.96238L17.0329 5.33002C17.4235 5.22535 17.634 4.81279 17.4112 4.47531C16.8755 3.66392 15.6393 2.47179 13.2037 3.12442ZM19.577 10.8404C19.577 12.4978 18.2334 13.8414 16.576 13.8414C14.9185 13.8414 13.575 12.4978 13.575 10.8404C13.575 9.18301 14.9185 7.83942 16.576 7.83942C18.2334 7.83942 19.577 9.18301 19.577 10.8404Z"/></svg>

<svg xmlns="http://www.w3.org/2000/svg" fill="none" viewBox="0 0 24 24" focusable="false"><path fill="#74767B" fill-rule="evenodd" d="M13.2 3.12c-1.51.4-2.27 1.19-2.66 1.96-.38-.77-1.15-1.56-2.66-1.96-2.43-.65-3.67.54-4.2 1.35-.23.34-.02.75.37.86l3.71.99c-.57.15-1.19.48-1.81 1.11-1.68 1.67-1.24 3.28-.8 4.13.18.36.64.39.93.1L9.3 8.44c-.08 1.18 0 2.49.15 3.89.11.99.33 1.97.66 2.9a7.5 7.5 0 0 0-4.75 3.71q-.645-.3-1.35-.78c-.3-.2-.7-.11-.9.18-.2.3-.12.71.18.91 2.08 1.38 3.83 1.82 5.4 1.71 1.54-.1 2.84-.72 3.99-1.28l.04-.02c1.17-.56 2.17-1.05 3.28-1.13 1.07-.07 2.33.24 3.96 1.49a.65.65 0 0 0 .79-1.03c-1.18-.91-2.26-1.42-3.27-1.64a7.56 7.56 0 0 0-6.06-2.34 11.4 11.4 0 0 1-.68-2.82c-.23-2.18-.26-3.93.1-5.21.03-.01.07-.01.1-.02l6.09-1.63c.39-.11.6-.52.38-.86-.54-.81-1.78-2-4.21-1.35m6.37 7.72c0 1.65-1.34 3-3 3s-3-1.35-3-3c0-1.66 1.34-3.01 3-3.01s3 1.35 3 3.01"/></svg>
